src/assets/img-button.svg

<svg fill="none" height="36" viewBox="0 0 36 36" width="36" xmlns="http://www.w3.org/2000/svg"><circle cx="18" cy="18" fill="#c4c4c4" r="18"/><g stroke="#fff" stroke-linecap="round" stroke-linejoin="round" stroke-width="1.5"><path d="m24.4167 9.75h-12.8334c-1.0125 0-1.8333.8208-1.8333 1.8333v12.8334c0 1.0125.8208 1.8333 1.8333 1.8333h12.8334c1.0125 0 1.8333-.8208 1.8333-1.8333v-12.8334c0-1.0125-.8208-1.8333-1.8333-1.8333z"/><path d="m14.7917 16.1667c.7594 0 1.375-.6157 1.375-1.375 0-.7594-.6156-1.375-1.375-1.375-.7593 0-1.375.6156-1.375 1.375 0 .7593.6157 1.375 1.375 1.375z"/><path d="m26.2499 20.75-4.5833-4.5833-10.0833 10.0833"/></g></svg>

<svg width="36" height="36" viewBox="0 0 36 36" fill="none" xmlns="http://www.w3.org/2000/svg">
<circle cx="18" cy="18" r="18" fill="#C4C4C4"/>
<path d="M24.4167 9.75H11.5833C10.5708 9.75 9.75 10.5708 9.75 11.5833V24.4167C9.75 25.4292 10.5708 26.25 11.5833 26.25H24.4167C25.4292 26.25 26.25 25.4292 26.25 24.4167V11.5833C26.25 10.5708 25.4292 9.75 24.4167 9.75Z" stroke="white" stroke-width="1.5" stroke-linecap="round" stroke-linejoin="round"/>
<path d="M14.7917 16.1667C15.5511 16.1667 16.1667 15.551 16.1667 14.7917C16.1667 14.0323 15.5511 13.4167 14.7917 13.4167C14.0324 13.4167 13.4167 14.0323 13.4167 14.7917C13.4167 15.551 14.0324 16.1667 14.7917 16.1667Z" stroke="white" stroke-width="1.5" stroke-linecap="round" stroke-linejoin="round"/>
<path d="M26.2499 20.75L21.6666 16.1667L11.5833 26.25" stroke="white" stroke-width="1.5" stroke-linecap="round" stroke-linejoin="round"/>
</svg>
